vsi/debug-alt_light.svg

<svg viewBox="0 0 24 24" fill="none" xmlns="http://www.w3.org/2000/svg" height="1em" width="1em">
  <g clip-path="url(#a)">
    <path d="M10.9402 13.5L9.62024 14.82C9.41948 14.0117 8.954 13.2939 8.29796 12.7809C7.64192 12.2679 6.83306 11.9892 6.00024 11.9892C5.16743 11.9892 4.35857 12.2679 3.70253 12.7809C3.04649 13.2939 2.58101 14.0117 2.38024 14.82L1.06024 13.5L0.000244141 14.56L1.72024 16.28L1.50024 16.5V18H0.000244141V19.5H1.50024V19.58C1.57675 20.0687 1.7145 20.5458 1.91024 21L0.000244141 22.94L1.06024 24L2.71024 22.35C3.10281 22.8509 3.60142 23.2586 4.17026 23.5438C4.7391 23.8291 5.36405 23.9849 6.00024 24C6.63643 23.9849 7.26139 23.8291 7.83023 23.5438C8.39907 23.2586 8.89768 22.8509 9.29024 22.35L10.9402 24L12.0002 22.94L10.0902 21C10.2884 20.5362 10.4262 20.0489 10.5002 19.55V19.45H12.0002V18H10.5002V16.5L10.2802 16.28L12.0002 14.56L10.9402 13.5ZM6.00024 13.5C6.59698 13.5 7.16928 13.7371 7.59123 14.159C8.01319 14.581 8.25024 15.1533 8.25024 15.75H3.75024C3.75024 15.1533 3.9873 14.581 4.40925 14.159C4.83121 13.7371 5.40351 13.5 6.00024 13.5V13.5ZM9.00024 19.5C8.92698 20.2709 8.58738 20.9921 8.03985 21.5396C7.49232 22.0871 6.77109 22.4267 6.00024 22.5C5.22939 22.4267 4.50817 22.0871 3.96064 21.5396C3.41311 20.9921 3.07351 20.2709 3.00024 19.5V17.25H9.00024V19.5ZM23.7602 9.6V10.86L13.5002 17.37V15.6L22.0002 10.23L9.00024 2V11.46C8.54331 11.139 8.03648 10.8958 7.50024 10.74V0.63L8.64024 0L23.7602 9.6Z" fill="#424242"/>
  </g>
  <defs>
    <clipPath id="a">
      <rect width="24" height="24" fill="white" transform="translate(0.000244141)"/>
    </clipPath>
  </defs>
</svg>

<svg viewBox="0 0 24 24" fill="none" xmlns="http://www.w3.org/2000/svg" height="1em" width="1em">
  <g clip-path="url(#a)">
    <path d="m10.94 13.5-1.32 1.32a3.73 3.73 0 0 0-7.24 0L1.06 13.5 0 14.56l1.72 1.72-.22.22V18H0v1.5h1.5v.08c.077.489.214.966.41 1.42L0 22.94 1.06 24l1.65-1.65A4.308 4.308 0 0 0 6 24a4.31 4.31 0 0 0 3.29-1.65L10.94 24 12 22.94 10.09 21c.198-.464.336-.951.41-1.45v-.1H12V18h-1.5v-1.5l-.22-.22L12 14.56l-1.06-1.06ZM6 13.5a2.25 2.25 0 0 1 2.25 2.25h-4.5A2.25 2.25 0 0 1 6 13.5Zm3 6a3.33 3.33 0 0 1-3 3 3.33 3.33 0 0 1-3-3v-2.25h6v2.25Zm14.76-9.9v1.26L13.5 17.37V15.6l8.5-5.37L9 2v9.46a5.07 5.07 0 0 0-1.5-.72V.63L8.64 0l15.12 9.6Z" fill="#424242"/>
  </g>
  <defs>
    <clipPath id="a">
      <path fill="#fff" d="M0 0h24v24H0z"/>
    </clipPath>
  </defs>
</svg>
